assets/svg/icon_categories_ai.svg

<svg width="24" height="24" viewBox="0 0 24 24" fill="none" xmlns="http://www.w3.org/2000/svg">
    <path
        d="M10.4638 8.71809C11.3251 7.17296 11.7557 6.40039 12.3996 6.40039C13.0435 6.40039 13.4741 7.17296 14.3355 8.71808L14.5583 9.11783C14.8031 9.55691 14.9254 9.77645 15.1162 9.9213C15.3071 10.0662 15.5447 10.1199 16.02 10.2275L16.4527 10.3254C18.1253 10.7038 18.9616 10.893 19.1606 11.5328C19.3595 12.1727 18.7894 12.8394 17.6491 14.1727L17.3541 14.5177C17.0301 14.8966 16.8681 15.0861 16.7952 15.3204C16.7223 15.5548 16.7468 15.8076 16.7958 16.3131L16.8404 16.7734C17.0128 18.5524 17.099 19.4419 16.5781 19.8373C16.0572 20.2328 15.2742 19.8722 13.7082 19.1512L13.303 18.9646C12.858 18.7597 12.6355 18.6573 12.3996 18.6573C12.1637 18.6573 11.9412 18.7597 11.4962 18.9646L11.0911 19.1512C9.52503 19.8722 8.74201 20.2328 8.22111 19.8373C7.70021 19.4419 7.78641 18.5524 7.9588 16.7734L8.0034 16.3131C8.05239 15.8076 8.07688 15.5548 8.004 15.3204C7.93111 15.0861 7.7691 14.8966 7.44507 14.5177L7.15008 14.1727C6.00982 12.8394 5.43969 12.1727 5.63866 11.5328C5.83762 10.893 6.67391 10.7038 8.34649 10.3254L8.77921 10.2275C9.25451 10.1199 9.49216 10.0662 9.68297 9.9213C9.87379 9.77645 9.99617 9.55691 10.2409 9.11783L10.4638 8.71809Z"
        stroke="#9A9A9A" stroke-width="1.2" />
    <path
        d="M6.39189 4C6.39189 4 6.62224 5.16617 7.12727 5.6678C7.6323 6.16943 8.8 6.39189 8.8 6.39189C8.8 6.39189 7.63383 6.62224 7.1322 7.12727C6.63057 7.6323 6.40811 8.8 6.40811 8.8C6.40811 8.8 6.17776 7.63383 5.67273 7.1322C5.1677 6.63057 4 6.40811 4 6.40811C4 6.40811 5.16617 6.17776 5.6678 5.67273C6.16943 5.1677 6.39189 4 6.39189 4Z"
        stroke="#9A9A9A" stroke-linejoin="round" />
    <path d="M16.8008 6.39961H18.4008M17.6008 7.19961L17.6008 5.59961" stroke="#9A9A9A"
        stroke-width="1.5" stroke-linecap="round" />
</svg>

<svg xmlns="http://www.w3.org/2000/svg" width="24" height="24" fill="none"><path stroke="#9A9A9A" stroke-width="1.2" d="M10.464 8.718C11.325 7.173 11.756 6.4 12.4 6.4s1.074.773 1.935 2.318l.223.4c.245.439.367.658.558.803s.429.199.904.306l.433.098c1.672.379 2.509.568 2.708 1.208.198.64-.372 1.306-1.512 2.64l-.295.345c-.324.379-.486.568-.559.802s-.048.488 0 .993l.045.46c.173 1.78.259 2.669-.262 3.064-.52.396-1.304.035-2.87-.686l-.405-.186c-.445-.205-.668-.308-.903-.308-.236 0-.459.103-.904.308l-.405.186c-1.566.721-2.349 1.082-2.87.686-.52-.395-.435-1.285-.262-3.064l.044-.46c.05-.505.074-.758.001-.993s-.235-.423-.559-.802l-.295-.345c-1.14-1.334-1.71-2-1.511-2.64s1.035-.83 2.707-1.208l.433-.098c.476-.107.713-.16.904-.306.19-.145.313-.364.558-.803z"/><path stroke="#9A9A9A" stroke-linejoin="round" d="M6.392 4s.23 1.166.735 1.668c.505.501 1.673.724 1.673.724s-1.166.23-1.668.735c-.501.505-.724 1.673-.724 1.673s-.23-1.166-.735-1.668C5.168 6.631 4 6.408 4 6.408s1.166-.23 1.668-.735C6.169 5.168 6.392 4 6.392 4Z"/><path stroke="#9A9A9A" stroke-linecap="round" stroke-width="1.5" d="M16.8 6.4h1.6m-.8.8V5.6"/></svg>
